cheelee/dist/images/instagram.svg

<svg width="30" height="30" viewBox="0 0 30 30" fill="none" xmlns="http://www.w3.org/2000/svg">
<g clip-path="url(#clip0_0_3611)">
<path fill-rule="evenodd" clip-rule="evenodd" d="M24.807 6.99305C24.807 7.98727 24.0009 8.79305 23.007 8.79305C22.013 8.79305 21.207 7.98727 21.207 6.99305C21.207 5.99883 22.013 5.19305 23.007 5.19305C24.0012 5.19305 24.807 5.99883 24.807 6.99305ZM15 19.9999C12.2386 19.9999 10.0001 17.7614 10.0001 15C10.0001 12.2386 12.2386 10.0001 15 10.0001C17.7614 10.0001 19.9999 12.2386 19.9999 15C19.9999 17.7614 17.7614 19.9999 15 19.9999ZM15 7.29727C10.7459 7.29727 7.29727 10.7459 7.29727 15C7.29727 19.2541 10.7459 22.7027 15 22.7027C19.2541 22.7027 22.7027 19.2541 22.7027 15C22.7027 10.7459 19.2541 7.29727 15 7.29727ZM15 2.70281C19.0052 2.70281 19.4796 2.71805 21.0612 2.79023C22.5237 2.85703 23.318 3.10125 23.8465 3.3068C24.5466 3.57891 25.0462 3.90398 25.5712 4.42898C26.0962 4.95375 26.4213 5.45344 26.6934 6.15375C26.8988 6.68227 27.1432 7.47656 27.21 8.93906C27.2822 10.5209 27.2974 10.9952 27.2974 15.0005C27.2974 19.0057 27.2822 19.4801 27.21 21.0616C27.1432 22.5241 26.899 23.3184 26.6934 23.847C26.4213 24.547 26.0962 25.0467 25.5712 25.5717C25.0465 26.0967 24.5468 26.4218 23.8465 26.6939C23.318 26.8992 22.5237 27.1437 21.0612 27.2105C19.4796 27.2827 19.0052 27.2979 15 27.2979C10.9945 27.2979 10.5202 27.2827 8.93859 27.2105C7.47609 27.1437 6.6818 26.8995 6.15328 26.6939C5.4532 26.4218 4.95352 26.0967 4.42852 25.5717C3.90375 25.047 3.57844 24.5473 3.30633 23.847C3.10102 23.3184 2.85656 22.5241 2.78977 21.0616C2.71758 19.4798 2.70234 19.0055 2.70234 15.0005C2.70234 10.9952 2.71758 10.5209 2.78977 8.93906C2.85656 7.47656 3.10078 6.68227 3.30633 6.15375C3.57844 5.45367 3.90352 4.95398 4.42852 4.42898C4.95328 3.90398 5.45297 3.57891 6.15328 3.3068C6.6818 3.10148 7.47609 2.85703 8.93859 2.79023C10.5204 2.71805 10.9948 2.70281 15 2.70281ZM15 0C10.9263 0 10.4154 0.0173438 8.81555 0.0902344C7.21898 0.163125 6.12844 0.416719 5.17453 0.7875C4.18805 1.1707 3.35156 1.68375 2.51766 2.51766C1.68375 3.35156 1.1707 4.18805 0.7875 5.17453C0.416719 6.12867 0.163125 7.21898 0.0902344 8.81555C0.0173438 10.4154 0 10.9263 0 15C0 19.0737 0.0173438 19.5846 0.0902344 21.1845C0.163125 22.781 0.416719 23.8713 0.7875 24.8255C1.1707 25.812 1.68375 26.6484 2.51766 27.4823C3.35156 28.3162 4.18805 28.8291 5.17453 29.2125C6.12867 29.5833 7.21898 29.8369 8.81555 29.9098C10.4154 29.9827 10.9263 30 15 30C19.0737 30 19.5846 29.9827 21.1845 29.9098C22.781 29.8369 23.8713 29.5833 24.8255 29.2125C25.812 28.8291 26.6484 28.3162 27.4823 27.4823C28.3162 26.6484 28.8291 25.812 29.2125 24.8255C29.5833 23.8713 29.8369 22.781 29.9098 21.1845C29.9827 19.5846 30 19.0737 30 15C30 10.9263 29.9827 10.4154 29.9098 8.81555C29.8369 7.21898 29.5833 6.12867 29.2125 5.17453C28.8291 4.18805 28.3162 3.35156 27.4823 2.51766C26.6484 1.68375 25.812 1.17094 24.8255 0.7875C23.8713 0.416719 22.781 0.163125 21.1845 0.0902344C19.5846 0.0173438 19.0737 0 15 0Z" fill="#01FFC2"/>
</g>
<defs>
<clipPath id="clip0_0_3611">
<rect width="30" height="30" fill="white"/>
</clipPath>
</defs>
</svg>

<svg xmlns="http://www.w3.org/2000/svg" width="30" height="30" fill="none" viewBox="0 0 30 30"><g clip-path="url(#a)"><path fill="#01FFC2" fill-rule="evenodd" d="M24.807 6.993a1.8 1.8 0 1 1-3.6 0 1.8 1.8 0 0 1 3.6 0M15 20a5 5 0 1 1 0-10 5 5 0 0 1 0 10m0-12.703a7.703 7.703 0 1 0 0 15.406 7.703 7.703 0 0 0 0-15.406m0-4.594c4.005 0 4.48.015 6.061.087 1.463.067 2.257.311 2.785.517.7.272 1.2.597 1.725 1.122s.85 1.024 1.122 1.725c.206.528.45 1.323.517 2.785.072 1.582.087 2.056.087 6.062 0 4.005-.015 4.48-.087 6.06-.067 1.463-.311 2.257-.517 2.786-.272.7-.597 1.2-1.122 1.725a4.64 4.64 0 0 1-1.725 1.122c-.528.205-1.322.45-2.785.517-1.581.072-2.056.087-6.061.087s-4.48-.015-6.061-.087c-1.463-.067-2.257-.311-2.786-.517-.7-.272-1.2-.597-1.724-1.122a4.65 4.65 0 0 1-1.123-1.725c-.205-.529-.45-1.323-.516-2.785-.072-1.582-.088-2.056-.088-6.062 0-4.005.016-4.48.088-6.06.067-1.463.31-2.258.516-2.786.272-.7.598-1.2 1.123-1.725a4.64 4.64 0 0 1 1.724-1.122c.529-.206 1.323-.45 2.786-.517 1.581-.072 2.056-.087 6.061-.087M15 0c-4.074 0-4.585.017-6.184.09-1.597.073-2.688.327-3.641.697a7.35 7.35 0 0 0-2.657 1.73 7.35 7.35 0 0 0-1.73 2.658C.417 6.129.163 7.219.09 8.815.017 10.416 0 10.927 0 15s.017 4.585.09 6.185c.073 1.596.327 2.686.697 3.64a7.35 7.35 0 0 0 1.73 2.657 7.35 7.35 0 0 0 2.658 1.73c.954.371 2.044.625 3.64.698 1.6.073 2.111.09 6.185.09s4.585-.017 6.185-.09c1.596-.073 2.686-.327 3.64-.698a7.35 7.35 0 0 0 2.657-1.73 7.35 7.35 0 0 0 1.73-2.656c.371-.955.625-2.045.698-3.642.073-1.6.09-2.11.09-6.184s-.017-4.585-.09-6.184c-.073-1.597-.327-2.687-.698-3.641a7.35 7.35 0 0 0-1.73-2.657 7.35 7.35 0 0 0-2.656-1.73C23.87.417 22.78.163 21.184.09 19.585.017 19.075 0 15 0" clip-rule="evenodd"/></g><defs><clipPath id="a"><path fill="#fff" d="M0 0h30v30H0z"/></clipPath></defs></svg>
